X: 39
T: No_131_I_Will_Beat_You.krn
N: Derived from No_131_I_Will_Beat_You.krn
%%abc-version 2.0
%%abcx-abcm2ps-target-version 5.9.1 (29 Sep 2008)
%%abc-creator hum2abc beta
%%abcx-conversion-date 2019/03/15 08:35:44
%%humdrum-veritas 3629411352
%%humdrum-veritas-data 1699465086
%%linebreak <none>
%%barnumbers 0
L: 1/8
M: 3/4
K: G clef=bass
[K:clef=bass][M:3/4]z2D,2(3D,D,D ]|:  
A,3/A,/ A,3/E,/ (3G,G,E, | 
D,3/D,/ D,3/D,/ z D/A,/ | 
G,3/G,/ G,3/D,/ (3G,G,E, | 
D,3/D,/ D,D,/ z/ (3D,D,E, ||  
D,3/D,/ D,D,/ z/ (3D,D,B, :|]  
D,3/D,/ D,3/D,/z2 |]  



